X: 29085
T: Neilly O'Boyle's Highland
R: hornpipe
M: 4/4
K: Amixolydian
eaag e2 ec|dcBc defa|eaag e2 ef|{a}gfge dB A2|
eaag e2 ec|dcBc defa|eaag e2 ef|{a}gfge dBAB|
cAcA dBdB|cAcA ceae|cAcA dBdB|ceae cAAB|
cAcA dBdB|cAcA ceae|cAcA dBdB|ceae cA A2|

